!!!SOCIAL_FUNCTION:	songs of the lame dance
!!!PDT:	1922
!!!OTL: No_41_Lame_Dance_Song_(c).krn
!!!REG: Southwest
!!!LANG: Non-Tone
!!!LING_GROUP: Uto-Aztecan
**kern	**kern
*staff2	*staff1
=1-	=1-
*clefF4	*clefF4
*k[f#c#g#d#]	*k[f#c#g#d#]
*M3/4	*M3/4
4GG#/	8.e\L
.	16f#\Jk
4GG#/	8.e\L
.	16B\Jk
4GG#/	16B\LK
.	8.G#\J
=2	=2
4GG#/	8e\L
.	16f#\L
.	16e\JJ
4GG#/	16f#\LK
.	8e\
.	16B\Jk
4GG#/	16B\LK
.	8.G#;\J
=3	=3
2.r	8.c#\L
.	16B\Jk
.	4c#\
.	16c#\LK
.	8.B\J
=4||	=4||
*M2/4	*M2/4
2r	12G#\L
.	12F#\
.	[12E\J
.	4E\]
=5||	=5||
*M3/4	*M3/4
2.r	16F#\LK
.	[8.E\J
.	8E\L]
.	8E\J
.	4E\
=6	=6
=	=
2.r	8.c#\L
.	16B\Jk
.	8.c#\L
.	16c#\Jk
.	8.B\L
.	(16G#\Jk
=7||	=7||
*M2/4	*M2/4
2r	12G#\L)
.	12F#\
.	12E\J
.	16F#\LL
.	16E\J
.	8F#\J
=8||	=8||
*M3/4	*M3/4
2.r	8.c#\L
.	16G#\Jk
.	16B\LL
.	16G#\
.	16B\
.	16G#\JJ
.	(24F#\LL
.	24E\)
.	(24F#\
.	24E\)
.	(24F#\
.	24E\JJ)
=9||	=9||
*M2/4	*M2/4
2r	12G#\L
.	12F#\
.	12E\J
.	12F#\L
.	12E\
.	12E\J
=10||	=10||
*M3/4	*M3/4
2.r	8E\L
.	8E\J
.	8E\
.	16r
.	16E\
.	4E\
=11	=11
*M2/4	*M2/4
2r	12G#\L
.	12F#\
.	12E\J
.	16F#\LL
.	16E\
.	16F#\
.	16E\JJ
=12	=12
2r	12G#\L
.	12F#\
.	12E\J
.	4E\
==:|!	==:|!
*-	*-
